X:1
T:J.S. Bach: Chaconne
K:C
M:3/4
L:1/4
[D2F2A2]|[DGBe][^C2G2A2e2]|[DFAf][_B,2F2d2]|[G,G_B][A,FA][^C/4G/4]F/4E/4F/4|[D/4G/4]E/4F/4D/4[D2F2A2]|
[DGBe][^C2G2A2e2]|[DFAf][_B,2F2d2]|[G,Ed_b][A,/2E/2^c/2a/2] g/4f/4g/2/e/2|[Dd/2f/2]

